<?xml version="1.0" encoding="UTF-8"?>
<map version="1.10" tiledversion="1.11.2" orientation="orthogonal" renderorder="right-down" width="40" height="23" tilewidth="8" tileheight="8" infinite="0" nextlayerid="2" nextobjectid="1">
 <tileset firstgid="1" source="../tilesets/Tileset.tsx"/>
 <tileset firstgid="71" source="../tilesets/Underground.tsx"/>
 <layer id="1" name="Tile Layer 1" width="40" height="23">
  <data encoding="csv">
129,130,129,130,129,130,129,130,129,130,129,130,129,130,129,130,129,130,129,130,129,130,129,130,129,130,129,130,129,130,129,130,129,130,129,130,129,130,129,130,
99,0,0,0,0,0,0,0,0,0,340,0,0,0,0,0,0,0,0,0,0,0,0,0,0,0,0,0,0,340,0,0,0,0,0,0,0,0,0,99,
99,0,0,0,0,0,0,0,0,0,366,0,0,0,0,0,0,0,0,0,0,0,0,0,0,0,0,0,0,366,0,0,0,0,0,0,0,0,0,99,
99,0,0,0,0,0,0,0,0,0,392,0,0,0,0,0,0,0,0,0,0,0,0,0,0,0,0,0,0,392,0,0,0,0,0,0,0,0,0,99,
99,0,0,0,0,0,0,0,0,0,366,0,0,0,0,0,0,0,0,0,0,0,0,0,0,0,0,0,0,366,0,0,0,0,0,0,0,0,0,99,
99,0,0,0,0,0,0,0,0,0,392,0,0,0,0,0,0,0,0,0,0,0,0,0,0,0,0,0,0,392,0,0,0,0,0,0,0,0,0,99,
99,0,0,0,0,0,0,0,0,0,366,0,0,0,0,0,0,0,0,0,0,0,0,0,0,0,0,0,0,366,0,0,0,0,0,0,0,0,0,99,
99,0,0,0,0,0,0,0,0,0,392,0,0,0,0,0,0,0,0,0,0,0,0,0,0,0,0,0,0,392,0,0,0,0,0,0,0,0,0,99,
99,0,0,0,0,0,0,0,0,0,366,0,0,0,0,0,0,0,0,0,0,0,0,0,0,0,0,0,0,366,0,0,0,0,0,0,0,0,0,99,
99,0,0,0,0,0,0,0,0,0,392,0,0,0,0,0,0,0,0,0,0,0,0,0,0,0,0,0,0,392,0,0,0,0,0,0,0,0,0,99,
99,0,0,0,0,0,0,0,0,0,366,0,0,0,0,0,0,0,0,0,0,0,0,0,0,0,0,0,0,366,0,0,0,0,0,0,0,0,0,99,
99,0,0,0,0,0,0,0,0,0,392,0,0,0,0,0,0,0,0,0,0,0,0,0,0,0,0,0,0,392,0,0,0,0,0,0,0,0,0,99,
99,0,0,0,0,0,0,0,0,0,366,0,0,0,0,0,0,0,0,0,0,0,0,0,0,0,0,0,0,366,0,0,0,0,0,0,0,0,0,99,
99,0,0,0,0,0,0,0,0,0,392,0,0,0,0,0,0,0,0,0,0,0,0,0,0,0,0,0,0,392,0,0,0,0,0,0,0,0,0,99,
99,1,1,1,1,1,1,1,1,0,366,1,1,1,1,1,1,1,1,1,1,1,1,1,1,1,1,1,1,366,0,1,0,0,0,0,0,0,0,99,
99,1,1,1,1,1,1,1,1,0,392,1,1,1,1,1,1,1,1,1,1,1,1,1,1,1,0,0,0,392,0,0,0,0,0,0,0,0,0,99,
99,1,1,1,1,1,1,1,1,0,366,1,0,0,0,0,0,0,0,0,0,0,0,0,0,0,0,0,0,366,0,0,0,0,0,0,0,0,0,99,
99,0,0,0,0,0,0,0,0,0,392,0,0,0,0,0,0,0,0,0,178,179,178,179,178,179,0,0,0,392,0,0,0,0,0,0,0,0,0,99,
99,1,1,1,1,1,1,1,1,0,366,1,1,1,1,1,0,0,0,0,0,0,0,0,0,0,0,0,0,366,0,1,1,1,1,0,0,0,0,99,
99,1,1,1,1,1,1,1,1,0,392,1,1,1,1,1,1,1,1,1,1,1,1,1,1,1,1,1,1,392,0,1,0,0,0,0,0,0,0,99,
99,0,0,0,0,0,0,0,0,0,366,0,0,0,0,0,0,0,0,0,0,0,0,0,0,1,1,1,1,366,0,1,0,0,0,0,0,0,0,99,
99,0,0,0,0,0,0,0,0,0,418,0,0,0,0,0,0,0,0,0,0,0,0,0,0,0,0,0,0,418,0,0,0,0,0,0,0,0,0,99,
178,179,178,179,178,179,178,179,178,179,178,179,178,179,178,179,178,179,178,179,178,179,178,179,178,179,178,179,178,179,178,179,178,179,178,179,178,179,178,179
</data>
 </layer>
</map>
