<?xml version="1.0" encoding="UTF-8"?>
<map version="1.10" tiledversion="1.11.2" orientation="orthogonal" renderorder="right-down" width="40" height="23" tilewidth="8" tileheight="8" infinite="0" backgroundcolor="#000000" nextlayerid="6" nextobjectid="16">
 <tileset firstgid="1" source="../tilesets/Overworld.tsx"/>
 <tileset firstgid="1121" source="../tilesets/Tileset.tsx"/>
 <tileset firstgid="1191" source="../tilesets/Underground.tsx"/>
 <tileset firstgid="2309" source="../tilesets/Trees.tsx"/>
 <tileset firstgid="5301" source="../tilesets/Sky.tsx"/>
 <tileset firstgid="5760" source="../tilesets/Player.tsx"/>
 <tileset firstgid="6502" source="../tilesets/Characters.tsx"/>
 <layer id="1" name="Background" width="40" height="23">
  <data encoding="csv">
0,0,5517,0,0,0,0,0,0,0,0,0,0,0,0,0,0,0,0,0,0,0,0,0,0,0,0,0,0,0,0,0,5613,0,0,0,0,0,0,0,
5532,0,0,0,0,0,0,0,0,0,5544,5545,5546,5547,5548,0,0,0,0,0,0,0,0,0,0,0,5624,5625,5626,5627,5628,5629,5630,0,0,0,0,0,0,0,
0,0,0,0,5311,0,0,0,0,0,0,0,0,0,0,0,0,0,0,0,0,5553,5554,5555,0,0,5641,5642,5643,5644,5645,5646,5647,0,0,0,0,0,0,0,
0,0,0,5327,5328,5329,0,0,0,0,5578,5579,5580,5581,5582,0,0,0,5567,5568,5569,5570,5571,5572,0,0,0,0,0,0,0,0,0,0,0,0,0,0,0,0,
0,0,0,5344,5345,5346,0,0,0,0,0,0,0,0,0,0,0,0,5584,5585,5586,5587,5588,5589,0,0,0,0,0,0,0,0,0,0,0,0,0,0,0,0,
0,0,0,0,0,0,0,0,0,0,0,0,0,0,0,0,0,0,0,0,0,0,0,0,0,0,0,0,0,0,0,0,0,0,5598,5599,5600,5601,5602,5603,
0,0,0,0,0,0,0,5509,5510,5511,0,0,0,0,0,0,0,0,0,0,0,0,0,0,0,0,0,0,5513,5514,5515,5516,5517,0,5615,5616,5617,5618,5619,5620,
5556,5557,5558,5559,0,0,0,5526,5527,5528,0,0,0,0,0,0,0,0,0,0,0,0,0,0,0,0,0,0,5530,5531,5532,5533,5534,0,5632,5633,5634,5635,5636,5637,
5573,5574,5575,5576,0,0,0,0,0,0,0,0,0,0,0,0,0,0,0,0,0,0,0,0,0,0,0,0,0,0,0,0,0,0,5649,5650,5651,5652,5653,5654,
0,0,0,0,0,0,0,0,0,0,0,0,0,0,0,0,0,0,0,0,0,0,0,0,0,0,0,0,0,0,0,0,0,0,0,0,0,0,0,0,
0,0,0,0,0,0,0,0,0,0,0,0,0,0,0,0,0,0,0,0,0,0,0,0,0,0,0,0,0,0,0,0,0,0,0,0,0,0,0,0,
0,0,0,0,0,0,0,0,0,0,0,0,0,0,0,0,0,0,0,0,0,0,0,0,0,0,0,0,0,0,0,0,0,0,0,0,0,0,0,0,
0,0,0,0,0,0,0,0,0,0,0,0,0,0,0,0,0,0,0,0,0,0,0,0,0,0,0,0,0,0,0,0,0,0,0,0,0,0,0,0,
0,0,0,0,0,0,0,0,0,0,0,0,0,0,0,0,0,0,0,0,0,0,0,0,0,0,0,0,0,0,0,0,0,0,0,0,0,0,0,0,
0,0,0,0,0,0,0,0,0,0,0,0,0,0,0,0,0,0,0,0,0,0,0,0,0,0,4917,4918,4919,0,0,0,0,0,0,0,0,0,0,0,
0,0,0,0,0,0,0,0,0,0,0,0,0,0,0,0,0,0,0,0,0,0,0,0,0,0,4951,4952,4953,0,0,0,0,0,0,0,0,0,0,0,
0,0,0,0,0,0,0,0,0,0,0,0,0,0,0,0,0,0,0,453,0,0,0,365,366,0,4985,4986,4987,0,0,0,0,0,0,0,0,0,0,0,
0,4905,4906,4907,0,0,0,0,0,0,0,0,0,0,0,0,0,0,283,281,281,281,281,281,281,281,281,281,281,287,0,0,0,0,0,0,0,0,0,0,
0,4939,4940,4941,0,0,0,0,0,0,0,0,0,0,0,0,0,0,1795,0,0,0,0,0,0,0,0,0,0,1848,299,299,299,305,0,0,0,0,0,4930,
0,4973,4974,4975,0,0,0,0,0,0,0,363,364,0,0,0,0,0,1925,0,0,0,0,0,0,0,0,0,0,1978,0,0,0,1978,0,0,0,0,0,4964,
281,281,281,281,281,281,281,281,281,281,281,281,281,281,281,281,281,281,2055,0,0,0,0,0,0,0,0,0,0,2056,281,281,281,281,281,281,281,281,281,281,
0,0,0,0,0,0,0,0,0,0,0,0,0,0,0,0,0,0,0,0,0,0,0,0,0,0,0,0,0,0,0,0,0,0,0,0,0,0,0,0,
0,0,0,0,0,0,0,0,0,0,0,0,0,0,0,0,0,0,0,0,0,0,0,0,0,0,0,0,0,0,0,0,0,0,0,0,0,0,0,0
</data>
 </layer>
 <objectgroup id="4" name="Entities">
  <object id="9" gid="5886" x="40" y="160" width="8" height="8">
   <properties>
    <property name="type" value="player"/>
   </properties>
  </object>
 </objectgroup>
 <objectgroup id="5" name="Collision">
  <object id="13" x="0" y="0" width="1" height="161">
   <properties>
    <property name="tag" value="no walls"/>
   </properties>
  </object>
  <object id="15" x="319" y="0" width="1" height="161">
   <properties>
    <property name="tag" value="no walls"/>
   </properties>
  </object>
 </objectgroup>
 <layer id="3" name="Foreground" width="40" height="23">
  <data encoding="csv">
0,0,5517,0,0,0,0,0,0,0,0,0,0,0,0,0,0,0,0,0,0,0,0,0,0,0,0,0,0,0,0,0,0,0,0,0,0,0,0,0,
0,0,0,0,0,0,0,0,0,0,0,0,0,0,0,0,0,0,0,0,0,0,0,0,0,0,0,0,0,0,0,0,0,0,0,0,0,0,0,0,
0,0,0,0,0,0,0,0,0,0,0,0,0,0,0,0,0,0,0,0,0,0,0,0,0,0,0,0,0,0,0,0,0,0,0,0,0,0,0,0,
0,0,0,0,0,0,0,0,0,0,0,0,0,0,0,0,0,0,0,0,0,0,0,0,0,0,0,0,0,0,0,0,0,0,0,0,0,0,0,0,
0,0,0,0,0,0,0,0,0,0,0,0,0,0,0,0,0,0,0,0,0,0,0,0,0,0,0,0,0,0,0,0,0,0,0,0,0,0,0,0,
0,0,0,0,0,0,0,0,0,0,0,0,0,0,0,0,0,0,0,0,0,0,0,0,0,0,0,0,0,0,0,0,0,0,0,0,0,0,5602,5603,
0,0,0,0,0,0,0,0,0,0,0,0,0,0,0,0,0,0,0,0,0,0,0,0,0,0,0,0,0,0,0,0,0,0,0,0,0,0,0,0,
0,0,0,5559,0,0,0,0,0,0,0,0,0,0,0,6517,6534,6513,6516,6517,6530,0,6527,6526,6517,0,0,0,0,0,0,0,0,0,0,0,0,0,0,0,
0,0,0,0,0,0,0,0,0,0,0,0,0,0,0,0,0,0,0,0,0,0,0,0,0,0,0,0,0,0,0,0,0,0,0,0,0,0,0,0,
0,0,0,0,0,0,0,0,0,0,0,0,0,0,0,0,0,0,0,0,0,0,0,0,0,0,0,0,0,0,0,0,0,0,0,0,0,0,0,0,
0,0,0,0,0,0,0,0,0,0,0,0,0,0,0,0,0,0,0,0,0,0,0,0,0,0,0,0,0,0,0,0,0,0,0,0,0,0,0,0,
0,0,0,0,0,0,0,0,0,0,0,0,0,0,0,0,0,0,0,0,0,0,0,0,0,0,0,0,0,0,0,0,0,0,0,0,0,0,0,0,
0,0,0,0,0,0,0,0,0,0,0,0,0,0,0,0,0,0,0,0,0,0,0,0,0,0,0,0,0,0,0,0,0,0,0,0,0,0,0,0,
0,0,0,0,0,0,0,0,0,0,0,0,0,0,0,0,0,0,0,0,0,0,0,0,0,0,0,0,0,0,0,0,0,0,0,0,0,0,0,0,
0,0,0,0,0,0,0,0,0,0,0,0,0,0,0,0,0,0,0,0,0,0,0,0,0,0,0,0,0,0,0,0,0,0,0,0,0,0,0,0,
0,0,0,0,0,0,0,0,0,0,0,0,0,0,0,0,0,0,0,0,0,0,0,0,0,0,0,0,0,0,0,0,0,0,0,0,0,0,0,0,
0,0,0,0,0,0,0,0,0,0,0,0,0,0,0,0,0,0,0,0,0,0,0,0,0,0,0,0,0,0,0,0,0,0,0,0,0,0,0,0,
0,0,0,0,0,0,0,0,0,0,0,0,0,0,0,0,0,0,0,0,0,0,0,0,0,0,0,0,0,0,0,0,0,0,0,0,0,0,0,0,
0,0,0,0,0,0,0,0,0,0,0,0,0,0,0,0,0,0,0,0,0,0,0,0,0,0,0,0,0,0,0,0,0,0,0,0,0,0,0,0,
0,0,0,0,0,0,0,0,0,0,0,0,0,0,0,0,0,0,0,0,0,0,0,0,0,0,0,0,0,0,0,0,0,0,0,0,0,0,0,0,
0,0,0,0,0,0,0,0,0,0,0,0,0,0,0,0,0,0,0,0,0,0,0,0,0,0,0,0,0,0,0,0,0,0,0,0,0,0,0,0,
0,0,0,0,0,0,0,0,0,0,0,0,0,0,0,0,0,0,0,0,0,0,0,0,0,0,0,0,0,0,0,0,0,0,0,0,0,0,0,0,
0,0,0,0,0,0,0,0,0,0,0,0,0,0,0,0,0,0,0,0,0,0,0,0,0,0,0,0,0,0,0,0,0,0,0,0,0,0,0,0
</data>
 </layer>
</map>
